icons/arrow/arrow-down-2.svg

<svg width="14" height="14" viewBox="0 0 14 14" fill="none" xmlns="http://www.w3.org/2000/svg">
<path d="M9.00003 2.5C9.27616 2.50002 9.50003 2.72387 9.50003 3V9.79297L10.6465 8.64648C10.8418 8.45124 11.1583 8.45123 11.3535 8.64648C11.5488 8.84174 11.5488 9.15826 11.3535 9.35352L9.00003 11.707L7.00003 9.70703L5.00003 11.707L2.64651 9.35352C2.45125 9.15825 2.45125 8.84175 2.64651 8.64648C2.81738 8.47564 3.08135 8.45387 3.27542 8.58203L3.35355 8.64648L4.50003 9.79297V3C4.50003 2.72386 4.72389 2.5 5.00003 2.5C5.27616 2.50002 5.50003 2.72387 5.50003 3V9.79297L6.64651 8.64648C6.67833 8.61467 6.7138 8.58883 6.75101 8.56738C6.76894 8.55704 6.78687 8.547 6.80569 8.53906C6.81301 8.53598 6.82073 8.53397 6.82816 8.53125C6.84712 8.52429 6.86625 8.51826 6.88577 8.51367C6.89936 8.51049 6.91302 8.50789 6.92679 8.50586C6.94527 8.50312 6.96382 8.50165 6.98245 8.50098C6.99255 8.50062 7.00262 8.50072 7.01273 8.50098C7.03337 8.50148 7.05378 8.50379 7.07425 8.50684C7.08399 8.50829 7.09389 8.50871 7.10355 8.51074C7.1301 8.51631 7.15614 8.52426 7.18167 8.53418C7.18426 8.53519 7.18691 8.53606 7.18948 8.53711C7.21916 8.54922 7.24807 8.56397 7.27542 8.58203L7.35355 8.64648L8.50003 9.79297V3C8.50003 2.72386 8.72389 2.5 9.00003 2.5Z" fill="red"/>
</svg>

<svg xmlns="http://www.w3.org/2000/svg" width="14" height="14" fill="none" viewBox="0 0 14 14"><path fill="red" d="M9 2.5a.5.5 0 0 1 .5.5v6.793l1.146-1.147a.5.5 0 1 1 .707.708L9 11.707l-2-2-2 2-2.353-2.353a.5.5 0 0 1 .628-.772l.079.064L4.5 9.793V3a.5.5 0 0 1 1 0v6.793l1.147-1.147a.5.5 0 0 1 .159-.107l.022-.008a.5.5 0 0 1 .246-.024l.03.004.078.023.007.003q.046.018.086.045l.079.064L8.5 9.793V3a.5.5 0 0 1 .5-.5"/></svg>
